X:1
T:L'iInvitation au Voyage
T:L'Invitation au Voyage
T:Emmanuel Chabrier
T:Charles Baudelaire
C:Emmanuel Chabrier
Z:Charles Baudelaire
%%score ( 1 2 ) ( 3 4 ) { ( 5 6 9 ) | ( 7 8 10 11 ) }
L:1/8
Q:1/4=90
M:6/4
K:Eb
V:1 treble nm="Voice"
V:2 treble 
V:3 tenor nm="Bassoon"
V:4 tenor 
V:5 treble nm="Piano"
V:6 treble 
V:9 treble 
V:7 treble 
V:8 treble 
V:10 treble 
V:11 treble 
V:1
"^Andante sempre rubato" z12 | z12 | z12 | z12 |"^dolce"[Q:1/4=80]"^T" (_G2 F2 A2- A) z!>(! (B4 | %5
w: ||||Mon en- fant, _ ma|
 E6-)!>)! E4 z2 | (B2 A2!<(! (_c2!<)! _d)) z!>(! (d4 |"^poco cresc." E6)!>)! (_d2 d2 _c2 | %8
w: sœur, _|songe à la _ dou-|ceur D'al- ler là-|
!mf![Q:1/4=80]"^Tranquillo"!<(! e6-)!<)!!>(! e2!>)! (_d2 _c2 | %9
w: bas _ vivre en-|
 A2 F2 _D2[Q:1/4=70]"^rit."[Q:1/4=70]"_suivez" _e6 | _G12- | _G6- G2) z2 z2 | %12
w: sem- * * *|ble,|_ _|
!p! (_d2 e2 (e2 B)) z!>(! (B4!>)! |!<(! A12)!<)! | %14
w: Ai- mer à loi- *|sir,|
[Q:1/4=65]"^rit. poco" (e2 f2 (f2 B)) z!>(! (B4!>)! |!<(! =A6-!<)! A) z!ff! e2 f2 | %16
w: Ai- mer et _ mou-|rir _ Au pa-|
 g6- !breath!g2"^expressif" (d2 c2 | %17
w: ys _ au pa-|
 (B2[Q:1/4=60]"^suivez" c)[Q:1/4=60]"^riten." (.e .d .B (A4) !fermata!F2))[Q:1/4=50]"_rit. molto" || %18
w: ys _ qui te res- sem- *|
[Q:1/4=90]"^1° Tempo"[Q:1/4=90]"^1° Tempo" E12- | E2 z2 z2 z2 z4 | z12 | z12 | %22
w: ble!|_|||
!f! (e2 _d2 _f4 (e2 d2) | (E2!<(! e6-) e2-!<)! e) z | (f2 e2 _g4 (f2 e2 | F2) f4- f) z (a4 | %26
w: Les so- leils mouil- *|lés _ _ _|De ces ciels brouil- *|lés _ _ Pour|
 f2 e2 _d2-)!pp! d2[Q:1/4=85]"^rit." (e2 f2 | (c6)[Q:1/4=80]"^rit." B6 | A12-) | A2 z2 z2 z6 | %30
w: mon es- prit _ ont les|char- *|mes|_|
 =e2 f2 (f2 F2)!>(! (F4!>)! | _G12) | =e2 f2 (f2 =G2) (!>!G4 |"^cresc." _A6) (=A6 | B6 f4 e2 | %35
w: Si mys- té- * ri-|eux|De tes traî- * tres|yeux, Bril-|lant à tra-|
 (e6 c4) B2 | B6-) B4- B z | B12- | B6- (B2 B,4-) | B,6- B, z z2 z2 || %40
w: vers _ leurs|lar- * mes|Ah!|_ _ _||
[Q:1/4=80]"^Plus lent" (E6 D4 ^C2 | D6-) D4 D2 | (E6 D4) ^C2 | D12 | E6- E4 E2 | E6- E4 E2 | %46
w: Là, tout n'est|qu'or- * dre|et _ beau-|té|Lu- * xe,|cal- * me|
 (D4 C4 B,4 | B,12-) | !fermata!B,12 |"^dolce" (_G2 F2 A2- A) z!>(! (B4!>)! | E6-) E4 z2 | %51
w: et vo- lup-|té.|_|Vois sur ces _ ca-|naux _|
 (B2 A2!<(! (_c2!<)! _d) z!>(! (d4) |"^poco cresc." E6)!>)! (_d2 d2 _c2 | %53
w: Dor- mir ces _ vais-|seaux Dont l'hu- meur|
!mf![Q:1/4=70]"^Tranquillo"!<(! e6-)!<)!!>(! e2!>)! (_d2 _c2 | %54
w: est _ va- ga-|
 A2 F2 _D2[Q:1/4=60]"^rit."[Q:1/4=60]"^suivez" _e6 | _G12- | _G6- G2) z2 z2 | %57
w: bon- * * *|de;|_ _|
!p![Q:1/4=90]"^T" (_d2 e2 (e2 B)) z!>(! (B4!>)! |!<(! A12)!<)! | %59
w: C'est pour as- * sou-|vir|
[Q:1/4=80]"^rit. poco" ((e2 f2) (f2 B)) z!>(! (B4!>)! |!<(! =A6-!<)! A) z!ff! (e2 f2) | %61
w: Ton moin- dre * dé-|sir _ Qu'ils _|
 g6- !breath!g2"^expressif" ((d2 c2) | %62
w: vien- nent qu'ils _|
 (B2 c)[Q:1/4=70]"^riten."[Q:1/4=70]"^suivez" (.e .d .B (A4) !fermata!F2))[Q:1/4=60]"^rit. molto" || %63
w: vien- nent du bout du mon- *|
[Q:1/4=90]"^1° Tempo"[Q:1/4=90]"^1° Tempo" E12- | E2 z2 z2 z2 z4 | z12 | z12 || %67
w: de.|_|||
!f! (e2 _d2 _f4 (e2 d2) | (E2!<(! e6-) e2-!<)! e) z | (f2 e2) _g3 g (f2 e2 | F2) f4- f z (a4 | %71
w: Les so- leils cou- *|chants _ _ _|Re- * vê- tent les _|champs _ _ les|
 f2 e2 _d2-)!pp! d2[Q:1/4=80]"^rit." (e2 f2 | c6) B6 | A12- | A2 z2 z2 z6 | %75
w: ca- naux, la _ ville en-|tiè- *|re,|_|
 =e2 f2 (f2 F2)!>(! (F4!>)! | _G12) | (=e2 f2) (f2 _G2) (!>!G4 |"^cresc." _A6) (=A6 | %79
w: D'hya- cinte et _ d'or;|_|Le _ mon- de s'en-|dort Dans|
 B4 B2 (f4 e2) | e6 (c4 B2) | B6- B4 B) z | B12- | B6- (B2 B,4-) | B,6- B, z z2 !fermata!z2 || %85
w: u- ne chau- *|de lu- *|miè- * re!|Ah!|_ _ _||
"^CODA"[Q:1/4=80]"^Più lento"[Q:1/4=80]"^Più lento"[Q:1/4=80]"^Più lento" z12 | %86
w: |
 z (!>!_d3 =E F (^F4 G)) z | z12 | z"^cresc." (e3 =A) (B =B4 c) z | %89
w: Là, tout n'est qu'or- dre||et _ beau- té _|
[Q:1/4=100]"^più mosso ed appassionato" z12 | %90
w: |
[Q:1/4=100]"^appass. poco più vivo" (E2 B,) !>!F2 E (E2 B,2) (!>!A F | E2 C2 (c)A) F (E2 D) z (c | %92
w: Là, _ Oh! oui là _ tout n'est|qu'or- dre et * beau- té _ Ah!|
[Q:1/4=110]"^Pressez"[Q:1/4=110]"^Pressez" D2) (e2 F2) (A c2 e2 f |!ff! a12- | a3 !>!D3) z6 | %95
w: _ Ah! _ Ah! _ _ _|_||
 z2!pp! (E4- E2 F2 _G2 |!>(! !fermata!=d6!>)! c6) | %97
w: Lu- * * xe,|cal- me|
[Q:1/4=90]"^1° Tempo e molto dolce"[Q:1/4=90]"^a Tempo" z6 z2 B4[Q:1/4=90]"^a Tempo" | %98
w: et|
 A6- A2 (A2 e2) | e12 |[Q:1/4=70]"^allarg. sempre"[Q:1/4=70]"^Lent"[Q:1/4=70]"^Lent" ((E4 D4) B,4 | %101
w: vo- * lup- *|té|vo- * lup-|
[Q:1/4=65]"^T" E12-) |[Q:1/4=60]"^T" E12- |[Q:1/4=55]"^T" E2 z2 z2 z6 | z12 |] %105
w: té.|_|||
V:2
 x12 | x12 | x12 | x12 | x12 | x12 | x12 | x12 | x12 | x12 | x12 | x12 | x12 | x11 e | x12 | x12 | %16
 x12 | x12 || x12 | x12 | x12 | x12 | x12 | x12 | x12 | x12 | x12 | x12 | x12 | x12 | x12 | x12 | %32
 x12 | x12 | x12 | x12 | x12 | x12 | x12 | x12 || x12 | x12 | x12 | x12 | x12 | x12 | x12 | x12 | %48
 x12 | x12 | x12 | x12 | x12 | x12 | x12 | x12 | x12 | x12 | x11 e | x12 | x12 | x12 | x12 || x12 | %64
 x12 | x12 | x12 || x12 | x12 | x12 | x12 | x12 | x12 | x12 | x12 | x12 | x12 | x12 | x12 | x12 | %80
 x12 | x12 | x12 | x12 | x12 || x12 | x12 | x12 | x12 | x12 | x12 | x12 | x12 | x12 | x12 | x12 | %96
 x12 | x12 | x12 | x10 F2 | x12 | x12 | x12 | x12 | x12 |] %105
V:3
 z12 | z12 | z12 | z12 | z12 | z12 | z12 |"^BASSON" z12 |!p! (G,6 A,2)!f!!>(! (_G4!>)! | %9
!>(! F6) (_F6!>)! | E12-) |!>(! E6-!>)! E4- E z | z6!p!"_espress." z2 (_F2 E2) | %13
 !>!D6-!<(! D2 E2 =E2!<)! |!f! F12- |!>(! F6- F!>)! z z2 z2 | (=A,2 B,2 =B,2!<(! C2 F2 ^F2)!<)! | %17
"_vibrato" (G6 F2 B,4) ||[K:bass] E,,12- | E,,6- E,,4- E,, z | z12 | z12 | %22
[K:tenor] z2!mf! (_C2 B,2 A,2 _G,2 B,2 |!>(! _D6-)!>)! (D4 _C) z | z2 (_D2 C2 B,2 A,2 C2) | %25
!>(! E6-!>)! (E4 _D) z | z12 | z12 |[K:bass]!pp! _D,,12- | D,,6- D,,2 z2 z2 |[K:tenor]!p! F12- | %31
 F12- | F12- | F z!f! (!>!F2 _A,2) z2 (!>!=G2 =A,2) |!ff! (B,6 D4 E2 |!>(!"_dim." E6 F4!>)! G2 | %36
!pp! (A12 | A)) z z2 z2 z6 | z12 | z12 || z12 |!pp! D6- D2 C=A, B,2- | B, z z2 z2 z6 | %43
 D6- D2 C=A, B,2 | C6 B,6 | z (A,2 C2 E2 F2 A2 c) |[K:bass] z2 B,,4 B,,,6- | B,,,6 B,,6 | %48
[K:tenor]!pp! G6- G4- G !fermata!z | z12 | z12 | z12 | z12 |!p! (G,6 A,2)!>(! (_G4!>)! | %54
!>(! F6) (_F6!>)! | E12-) |!>(! E6-!>)! E4- E z | z6!p!"_espress." z2 (_F2 E2) | %58
 !>!D6-!<(! D2 E2 =E2!<)! |!f! F12- |!>(! F6- F!>)! z z2 z2 | %61
!f! (=A,2 B,2"_cresc." =B,2!<(! C2 F2 ^F2)!<)! |"_vibrato" (G6 F2 B,4) ||[K:bass] E,,12- | %64
 E,,6- E,,4- E,, z | z12 | z12 ||[K:tenor] z2!mf! (_C2 B,2 A,2 _G,2 B,2 |!>(! _D6-)!>)! (D4 _C) z | %69
 z2 (_D2 C2 B,2 A,2 C2) |!>(! E6-!>)! (E4 _D) z | z12 | z12 |[K:bass]!pp! _D,,12- | D,,6- D,,2 z4 | %75
[K:tenor]!p! F12- | F12- | F12- | F z!f! (!>!F2 _A,2) z2 (!>!=G2 =A,2) |!ff! (B,6 D4 E2 | %80
!>(!"_dim." D6 F4!>)! G2 |!pp! A12- | A) z z2 z2 z6 | z12 | !fermata!z12 || z12 | z6!>(! =E6!>)! | %87
 z12 | z6 _E6 | z12 | z12 | z6 z2 z2 A2- | A z A2- A z .F.E.C.A,.F,.E, |[K:bass] B,,12- | %94
 B,, z z2 z2 z6 | z12 | z12 |[K:tenor] z2 G4 B,2 x2 x2 | B6- B2 B,4 | C12- | C4 B,4[K:bass] B,,4 | %101
 E,,12- | E,,12- | E,,6- E,,2 z2 z2 | z12 |] %105
V:4
 x12 | x12 | x12 | x12 | x12 | x12 | x12 | x12 | x12 | x12 | x12 | x12 | x12 | x12 | x12 | x12 | %16
 x12 | x12 ||[K:bass] x12 | x12 | x12 | x12 |[K:tenor] x12 | x12 | x12 | x12 | x12 | x12 | %28
[K:bass] x12 | x12 |[K:tenor] x12 | x12 | x12 | x12 | x12 | x12 | x12 | x12 | x12 | x12 || x12 | %41
 x12 | x12 | x12 | x12 | x12 |[K:bass] x12 | x12 |[K:tenor] x12 | x12 | x12 | x12 | x12 | x12 | %54
 x12 | x12 | x12 | x12 | x12 | x12 | x12 | x12 | x12 ||[K:bass] x12 | x12 | x12 | x12 || %67
[K:tenor] x12 | x12 | x12 | x12 | x12 | x12 |[K:bass] x12 | x12 |[K:tenor] x12 | x12 | x12 | x12 | %79
 x12 | x12 | x12 | x12 | x12 | x12 || x12 | x12 | x12 | x12 | x12 | x12 | x12 | x12 |[K:bass] x12 | %94
 x12 | x12 | x12 |[K:tenor] x10 E2 | x12 | x12 | x8[K:bass] x4 | x12 | x12 | x12 | x12 |] %105
V:5
 ([ff']2"_molto espress."!>(! (([ff']4!>)! [Gg]6))) | [Ff]2!>(! (([Ff]4!>)! [G,G]6)) | z12 | z12 | %4
 z2 !arpeggio![B,EFA]4- [B,EFA]6 | z2 !arpeggio![B,E_GB]4- [B,EGB]6 | %6
 z2 !arpeggio![_CEFA_c]4- [CEFAc]6 | z2 !arpeggio![_DEGB_d]4- [DEGBd]6 | %8
[K:bass]!<(! _C,/E,/G,/B,/[I:staff +1] _C/E/G/B/[I:staff -1][K:treble] _c/e/g/b/!<)! a z z2 z2 | %9
!<(! ([_CE]2!<)! [F_ce]4)!<(! ([_FA]2!<)! [Bfa]4) | [_d_d']2!>(! ([dd']4!>)! [Ee]6) | %11
 [_D_d]2!>(! (([Dd]4!>)! [E,E]6)) | z2 z2 !>!_D2- D6 |!<(! (=D6- D2 E2 =E2)!<)! | %14
 z2"_cresc." ([=A,EF=A]6 [B,DFG]4) | z2 [=A,CEF]4- [A,CEF]2 z2 z2 | =A2 B2"^cresc." =B2 c2 f2 ^f2 | %17
 (3(geB .e.G.B.E) (D/A/c/d/-) [dc']4 || ([ff']2!>(! (([ff']4!>)! [Gg]6))) | %19
 [Ff]2!>(! (([Ff]4!>)! x2 [G,G]4)) | z12 | z12 | z2 z2 (.[B,_D_G]2- [B,DG]2 .[B,_FG]4) | %23
 [_d_d']2!>(! (([dd']4!>)! [Ee]6)) | z2 z2 (.[CEA]2- [CEA]2 .[C_GA]4) | [ee']2 (([ee']4 [Ff]6)) | %26
[K:bass]!>(! [_D,F,B,_D]6-!>)! [D,F,B,D]6 | (C6 B,6) | %28
[K:treble]{/[_B,DF]} [ee']2 (([ee']4 [Ff]6)) | [Ee]2 (([Ee]4 [F,F]6)) | %30
 z (.[=A,CEF]2 .[A,CEF]2 .[A,CEF]2 .[A,CEF]2 .[A,CEF]2 .[A,CEF]) | [ff']2 (([ff']4 [_G_g]6)) | %32
 z (.[=B,=DF=G]2 .[B,DFG]2 .[B,DFG]2 .[B,DFG]2 .[B,DFG]2 .[B,DFG]) | %33
 z2!>(! (([ff']2 [_A_a]2))!>)! z2!>(! (([gg']2 [=A=a]2))!>)! | %34
!f! ([_Acf] [Acf]2 [Acf]2 [Acf] [ac'f'] [ac'f']2 [ac'f']2 [ac'f']) | %35
"_dim." [ac'e'] [Ace]2!>(! [Ace]2 [Ace] [DAc] [DAc]2 [DAc]2 [DGB]!>)! | %36
!ppp! [DGB] (.[AB]2 .[AB]2 .[AB]2 .[AB]2 .[AB]2 .[AB]-) | [AB]6- [AB] z x4 | %38
 a z!>(! (a4 B2)!>)! x4 | d z!>(! (c4 !fermata!D2)!>)! x4 || %40
!ppp! (.[egbe'].[egbe'].[egbe'].[egbe'].[egbe'].[egbe']!>(! .[=egbd'].[egbd'].[egbd'].[egbd'].[egb^c'].[egbc'])!>)! | %41
!>(! =c'2 b2 =a2 _a6!>)! | %42
!ppp! (.[egbe'].[egbe'].[egbe'].[egbe'].[egbe'].[egbe'] .[=egbd'].[egbd'].[egbd'].[egbd'].[egb^c'].[egbc']) | %43
!>(! c'2 b2 =a2 _a6!>)! | z2 (a2 g2 e2 c2 G2) | %45
!<(! z2 ([Acef]2 [cefa]2 [efac']2 [fac'e']2 [ac'e'f']2)!<)! |!>(! d4!>)!!>(! c4!>)!!>(! B4!>)! | %47
 ([GBfg] [GBfg]2 [GBfg]2 [GBfg]2 [GBe]2 [EGB]2 [B,EG]) |!ppp! [egb]8 !fermata!x4 | %49
 z2 !arpeggio![B,EFA]4- [B,EFA]6 | z2 !arpeggio![B,E_GB]4- [B,EGB]6 | %51
 z2 !arpeggio![_CEFA_c]4-"_cresc." [CEFAc]6 | z2 !arpeggio![_DEGB_d]4- [DEGBd]6 | %53
[K:bass]!<(! _C,/E,/G,/B,/[I:staff +1] _C/E/G/B/[I:staff -1][K:treble] _c/e/g/b/!<)! a z z2 z2 | %54
!<(! ([_CE]2!<)! [F_ce]4)!<(! ([_FA]2!<)! [Bfa]4) | [_d_d']2!>(! ([dd']4!>)! [Ee]6) | %56
 [_D_d]2!>(! (([Dd]4!>)! [E,E]6)) | z2 z2 !>!_D2- D6 |!<(! (=D6- D2 E2 =E2)!<)! | %59
 z2"_cresc." ([=A,EF=A]6 [B,DFG]4) | z2 [=A,CEF]4- [A,CEF]2 z2 z2 | =A2 B2 =B2 c2 f2 ^f2 | %62
 (3(geB .e.G.B.E) (D/A/c/d/-) [dc']4 || ([ff']2!>(! (([ff']4!>)! [Gg]6))) | %64
 [Ff]2!>(! (([Ff]4!>)! x2 [G,G]4)) | x12 | x12 || z2 z2 (.[B,_D_G]2- [B,DG]2 .[B,FF]4) | %68
 [_d_d']2!>(! (([dd']4!>)! [Ee]6)) | z2 z2 (.[CEA]2- [CEA]2 .[C_GA]4) | [ee']2 (([ee']4 [Ff]6)) | %71
[K:bass]!>(! [_D,F,B,_D]6-!>)! [D,F,B,D]6 | (C6 B,6) | %73
[K:treble]{/[_B,DF]} [ee']2 (([ee']4 [Ff]6)) | [Ee]2 (([Ee]4 [F,F]6)) | %75
 z (.[=A,CEF]2 .[A,CEF]2 .[A,CEF]2 .[A,CEF]2 .[A,CEF]2 .[A,CEF]) | [ff']2 [ff']4 [_G_g]6 | %77
 z (.[=B,=DF=G]2 .[B,DFG]2 .[B,DFG]2 .[B,DFG]2 .[B,DFG]2 .[B,DFG]) | %78
 z2!>(! (([ff']2 [_A_a]2))!>)! z2!>(! (([gg']2 [=A=a]2))!>)! | %79
!f! ([_Acf] [Acf]2 [Acf]2 [Acf] [ac'f'] [ac'f']2 [ac'f']2 [ac'f']) | %80
"_dim." [ac'e'] [Ace]2!>(! [Ace]2 [Ace] [DAc] [DAc]2 [DAc]2 [DGB]!>)! | %81
!ppp! [DGB] (.[AB]2 .[AB]2 .[AB]2 .[AB]2 .[AB]2 .[AB]-) | [AB]6- [AB] z x4 | %83
 a z!>(! (a4 B2)!>)! x4 | d z!>(! (c4!>)! !fermata!D6) || z12 | z2 z2 (=EF!>(! ^F4!>)! G) z | z12 | %88
 z ([ee']3 [=A=a][Bb]!>(! (([=B=b]4!>)! [cc']))) z |!pp! z6 !//-![B,E]3 [FA]3 | !//-![B,E]6 [FA]6 | %91
 !//-![CE]3 [FA]3 !//-![EF] [Ac] !//-![DE] [FAc] x2 | %92
"_cresc." c/A/F/D/[I:staff +1] (=E/F/[I:staff -1]A/c/ _e/c/A/F/) x2 x4 | %93
!fff! [cea] ([cea][Bdg]) ([Bdg][Acf]) ([Acf][GBe]) ([GBe][FAd]) ([FAd][EGc]) [EGc] | D6- D4- D z | %95
 z12 | z12 |!p! [ff']2!>(! (([ff']4!>)! [Gg]6)) | [ff']2!>(! (([ff']4!>)! [Gg]6)) | %99
 ((([B,EB]6 [A,C]6))) | ([A,CE]4 D4 x4 |"_dim." E12-) | [EGe]12 |!ppp! [gc'e']12- | %104
 [gc'e']2 z2 z2 z6 |] %105
V:6
 z [gb]2 [gb]3 x6 | z [GB]2 [GB]3 x6 | x12 | x12 | x12 | x12 | x12 | x12 | %8
[K:bass] x4[K:treble] x8 | x12 | z [E_G]2 [EG]3 x2 [_CG]4 | x12 | x12 | x12 | x12 | x12 | %16
 z [EG]2 [EG]2 [EG] (3c=AE (3feA (3^feA | x2 GB,EG, x6 || z [GB]2 [GB]3 z2 !tenuto!.[EB]4 | x12 | %20
 x12 | x12 | x12 | x12 | x12 | x12 |[K:bass] x12 | [_D,_G,]12 |[K:treble] x12 | x12 | x12 | x12 | %32
 x12 | x12 | x12 | x12 | x12 | x12 | x12 | x12 || x12 | %41
 (.[dfa].[dac'].[dg].[dgb].[d^f].[df=a] .[d=f].[df_a].[cfa].[=Afa].[Bfa].[Bfa]) | x12 | %43
 (.[dfa].[dac'].[dg].[dgb].[d^f].[df=a] .[d=f].[df_a].[cfa].[=Afa].[Bfa].[Bfa]) | x12 | %45
 x5 [CEFA]2 [EFAc]2 [FAce]2 [Acef] | [Ac]2 [GB]2 [^F=A]2 [=F_A]2 ([EFB]2 [Acf]2) | x12 | x12 | %49
 x12 | x12 | x12 | x12 |[K:bass] x4[K:treble] x8 | x12 | z [E_G]2 [EG]3 x2 [_CG]4 | x12 | x12 | %58
 x12 | x12 | x12 | z [EG]2 [EG]2 [EG] (3c=AE (3fcA (3^fdA | x2 GB,EG, x6 || %63
 z [GB]2 [GB]3 z2 !tenuto!.[EB]4 | x12 | x12 | x12 || x12 | x12 | x12 | x12 |[K:bass] x12 | %72
 [_D,_G,]12 |[K:treble] x12 | x12 | x12 | x12 | x12 | x12 | x12 | x12 | x12 | x12 | x12 | x12 || %85
 x12 | z2 (.[B,_D=E]2 [B,D]2 .[B,DE]2 .[B,DE]2 .[B,DE]2) | x12 | x12 | x12 | x12 | x12 | x12 | %93
 x12 | [DFB] x11 | x12 | x12 | x12 | x12 | x12 | x12 | x12 | x12 | x12 | x12 |] %105
V:7
!ped! z [GB]2 [GB]3 z2 !fermata![EB]4!ped-up! | %1
[K:bass]!ped! z [G,B,]2 [G,B,]3 z2 !fermata![E,B,]4!ped-up! |!>(! [E,,_G,]12- | %3
!pp! !fermata![E,,B,,G,]12!>)! | z2!ped! !arpeggio![B,,E,F,A,]4- [B,,E,F,A,]6!ped-up! | %5
 z2!ped! !arpeggio![B,,E,_G,]4- [B,,E,G,=A,]6!ped-up! | %6
 z2!ped! !arpeggio![B,,E,F,A,]4- [B,,E,F,A,]6!ped-up! | %7
 z2!ped! !arpeggio![B,,E,G,B,]4- [B,,E,G,B,]6!ped-up! |[K:treble]!ped! z12!ped-up! | %9
[K:bass]!ped! [F,A,]2 _D,,4 x2 _G,,4!ped-up! |!ped! [_C,,_G,,]12- | %11
 z [_E,_G,]2 [E,G,]3 z2 [_C,G,]4!ped-up! | z2 [_C,E,=G,]4- [C,E,G,]6 | %13
 !>![_C,_F,A,]6- [C,F,A,]2 z2 z2 | (=C,6 D,6 | E,6- E,2) z2 z2 | %16
!ff!!ped! (B,B,, B,,,4)!ped-up!!ped! (F,F,, F,,,4)!ped-up! | %17
!ped! [B,,,B,,]6!ped-up!!ped! (B,,/F,/B,/)(B,/- [B,A]4)!ped-up! ||!ped! [C,,B,,]12-!ped-up! | %19
 z [G,B,]2 [G,B,]3 z2 !tenuto!.[E,B,]4 |!>(! (F,,6 _G,,6-)!>)! | G,,12 | %22
!ped! (([_C,,_G,,]2 [_C,_G,]4-)) [C,G,]6!ped-up! | %23
[K:treble] z [E_G]2 [EG]3 z2!pp! !tenuto!.[_CG]4 |[K:bass] (([_D,,A,,]2 [_D,A,]4-)) [D,A,]6 | %25
[K:treble] z!>(! (.[FA]2 .[FA]3)!>)! z2 !tenuto!.[_DA]4 |[K:bass] (=G,,6 (3(A,,B,,A,, _D,,4) | %27
 _G,,12) |[K:treble] z!>(! [FA]2 [FA]3!>)! z2 !tenuto!.[_DA]4 | %29
[K:bass] z!>(! [F,A,]2 [F,A,]3!>)! z2 !tenuto!.[_D,A,]4 | %30
 (.[=A,,C,E,F,]2 .[A,,C,E,F,]2 .[A,,C,E,F,]2 .[A,,C,E,F,]2 .[A,,C,E,F,]2 .[A,,C,E,F,]2) | %31
 [B,,_D,F,_G,][K:treble]!>(! (.[B,DFG]2 .[B,DFG]2 .[B,DFG]2!>)! .[B,DFG]2 .[B,DFG]2 .[B,DFG]) | %32
[K:bass] (.[=B,,=D,F,=G,]2 .[B,,D,F,G,]2 .[B,,D,F,G,]2 .[B,,D,F,G,]2 .[B,,D,F,G,]2 .[B,,D,F,G,]2) | %33
 [C,E,G,_A,][K:treble]"^cresc. molto" [CEGA]2 [CEGA]2 [CEGA]2 [CEGA]2 [CEGA]2 [CEGA] | %34
[K:bass] [B,D] [B,D]2 [B,D]2 [B,D][K:treble] [Bd] [Bd]2 [Bd]2 [Be] | %35
 [Be] [B,E]2 [B,E]2 [B,E][K:bass] [B,,F,] [B,,F,]2 [B,,F,]2 [B,,G,] | [B,,A,] z z2 z2 z6 | %37
 z6 z2"^a piacere"!<(! !fermata!_G,/_D/_F/!courtesy!_G/[I:staff -1]A/B/_d/_f/!<)! | %38
[I:staff +1] z6 z2!<(! !fermata!B,,/=F,/A,/B,/[I:staff -1]C/=D/F/A/!<)! |[I:staff +1] x12 || %40
 [B,,,E,,B,,]6- [B,,,E,,B,,] z z2 z2 | %41
[K:treble]"_expressif" [Ac][Ac][GB][GB][^F=A][FA] [=F_A][FA][FA][FA][FA][FA] | %42
[K:bass] [B,,,E,,B,,]6- [B,,,E,,B,,] z z2 z2 | %43
[K:treble] [Ac][Ac][GB][GB][^F=A][FA] [=F_A][FA][FA][FA][FA][FA] | %44
[K:bass]!ped! z (.[G,CE]2 .[G,CE]2 .[G,CE]2 .[G,CE]2 .[G,CE]2 .[G,CE])!ped-up! | %45
!ped! z [F,A,CE] [A,CEF]2 x8!ped-up! |!ped! [B,,,B,,]12!ped-up! |!ped! [E,,B,,]12- | %48
 [E,,B,,]2 [E,,B,,]4 [E,,B,,]4- [E,,B,,] !fermata!z!ped-up! | %49
 z2!ped! !arpeggio![B,,E,F,A,]4- [B,,E,F,A,]6!ped-up! | %50
 z2!ped! !arpeggio![B,,E,_G,]4- [B,,E,G,]6!ped-up! | %51
 z2!ped! !arpeggio![B,,E,F,A,]4- [B,,E,F,A,]6!ped-up! | %52
 z2!ped! !arpeggio![B,,E,G,B,]4- [B,,E,G,B,]6!ped-up! |[K:treble]!ped! z12!ped-up! | %54
[K:bass]!ped! [F,A,]2 _D,,4 ([B,_D]2 _G,,4)!ped-up! |!ped! [C,,_G,,]12- | %56
 z [_E,_G,]2 [E,G,]3 z2 [_C,G,]4!ped-up! | z2 [_C,E,=G,]4- [C,E,G,]6 | %58
 [_C,F,A,]6- [C,F,A,]2 z2 z2 | (=C,6 D,6 | E,6- E,2) z2 z2 | %61
!ff!!ped! (B,B,, B,,,4)!ped-up!!ped! (F,F,, F,,,4)!ped-up! | %62
!ped! [B,,,B,,]6!ped-up!!ped! (B,,/F,/B,/)(B,/- [B,A]4)!ped-up! ||!ped! [C,,B,,]12-!ped-up! | %64
 z [G,B,]2 [G,B,]3 z2 !tenuto!.[E,B,]4 |!>(! (F,,6 _G,,6-)!>)! | _G,,12 || %67
!ped! (([_C,,_G,,]2 [_C,_G,]4-)) [C,G,]6!ped-up! | %68
[K:treble] z [E_G]2 [EG]3 z2!pp! !tenuto!.[_CG]4 |[K:bass] (([_D,,A,,]2 [_D,A,]4-)) [D,A,]6 | %70
[K:treble] z!>(! .[FA]2 .[FA]3!>)! z2 !tenuto!.[_DA]4 |[K:bass] (=G,,6 (3(A,,B,,A,, _D,,4) | %72
 _G,,12) |[K:treble] z!>(! [FA]2 [FA]3!>)! z2 !tenuto!.[_DA]4 | %74
[K:bass] z!>(! [F,A,]2 [F,A,]3!>)! z2 !tenuto!.[_D,A,]4 | %75
 (.[=A,,C,E,F,]2 .[A,,C,E,F,]2 .[A,,C,E,F,]2 .[A,,C,E,F,]2 .[A,,C,E,F,]2 .[A,,C,E,F,]2) | %76
 [B,,_D,F,_G,][K:treble]!>(! (.[B,DFG]2 .[B,DFG]2 .[B,DFG]2!>)! .[B,DFG]2 .[B,DFG]2 .[B,DFG]) | %77
[K:bass] (.[=B,,=D,F,=G,]2 .[B,,D,F,G,]2 .[B,,D,F,G,]2 .[B,,D,F,G,]2 .[B,,D,F,G,]2 .[B,,D,F,G,]2) | %78
 [C,E,G,_A,][K:treble]"^cresc. molto" [CEGA]2 [CEGA]2 [CEGA]2 [CEGA]2 [CEGA]2 [CEGA] | %79
[K:bass] [B,D] [B,D]2 [B,D]2 [B,D][K:treble] [Bd] [Bd]2 [Bd]2 [Be] | %80
 [Be] [B,E]2 [B,E]2 [B,E][K:bass] [B,,F,] [B,,F,]2 [B,,F,]2 [B,,F,] | [B,,F,] z z2 z2 z6 | %82
 z6 z2"^a piacere"!<(! !fermata!_G,/_D/_F/!courtesy!_G/[I:staff -1]A/B/_d/_f/!<)! | %83
[I:staff +1] z6 z2!<(! !fermata!B,,/=F,/A,/B,/[I:staff -1]C/=D/F/A/!<)! |[I:staff +1] x12 || %85
!pp! z2 [E,G,B,]2 [E,G,B,]2 z2 [E,G,B,]2 [E,G,B,]2 | C,12 | %87
 z2 (.[C,E,_G,]2 .[C,E,G,]2) z2 (.[C,E,G,]2 .[C,E,G,]2) | %88
 z2 (.[=A,E_G]2 .[A,EG]2 .[A,EG]2 .[A,EG]2 .[A,EG]2) |!ped! z12 | %90
 z2 (!>!A,,/B,,/A,,/B,,/ A,,) z (!>!A,,/B,,/A,,/B,,/ A,,) z (!>!A,,/B,,/A,,/B,,/)!ped-up! | %91
 !//-!=A,,3 B,,3 !//-!A,, B,, !//-!A,, B,, ^C/D/[I:staff -1]F/A/ | %92
[I:staff +1] x6[K:treble] (=E/F/[I:staff -1]A/c/)[I:staff +1](F/A/[I:staff -1]c/_e/)[I:staff +1](A/c/[I:staff -1]e/f/) | %93
[I:staff +1][K:bass] [B,,,B,,] [=B,,,=B,,]2 [C,,C,]2 [D,,D,]2 [E,,E,]2 [F,,F,]2 [G,,G,] | %94
 [A,,A,] z z2 z2 z6 |!ped! [=A,,C,E,_G,]12- | [C,E,G,]2 z2 z2 !fermata!z6!ped-up! | %97
[K:treble] z [GB]2 [GB]3 z2 !tenuto!.[EB]4 | (.[^CA]2 .[DA]2 .[EA]2 .[=EA]2) [FA]4 | %99
[K:bass] (C2 E,4 D,2 E,4) |!ped! F,,4 B,,4- x2 x2!ped-up! | [E,,E,G,]12 | _C6 B,6 | %103
[K:treble] ([E-=Ae-]12 | [EBe]2) z2 z2 z6 |] %105
V:8
 (.F2 .F2 .B,2- B,6) |[K:bass] (.F,2 .F,2 .B,,2- B,,6) | (=A,,6 B,,6-) | x12 | x12 | x12 | x12 | %7
 x12 |[K:treble] x12 |[K:bass] x6 [B,_D]4 x2 | x12 | (_D,2 D,2 !>!_G,,2- G,,6) | x12 | x12 | x12 | %15
 x12 | x12 | x12 || x12 | (F,2 F,2 B,,2- B,,6) | [_C,,E,]12- | !fermata![C,,E,]12 | x12 | %23
[K:treble] (_D2 D2 G,2- G,6) |[K:bass] x12 |[K:treble] (E2 E2 !>!A,2- A,6) |[K:bass] x12 | x12 | %28
[K:treble]{/[_B,,F,]} (.E2 .E2 .A,2- A,6) |[K:bass] (.E,2 .E,2 .A,,2- A,,6) | x12 | %31
 x[K:treble] x11 |[K:bass] x12 | x[K:treble] x11 |[K:bass] x6[K:treble] x6 | x6[K:bass] x6 | x12 | %37
 x12 | x12 | x12 || x12 |[K:treble] (D6- D2 C=A, B,2) |[K:bass] x12 |[K:treble] (D6- D2 C=A, B,2) | %44
[K:bass] C,,12 | F,,,12 | x12 | x12 | x12 | x12 | x12 | x12 | x12 |[K:treble] x12 |[K:bass] x12 | %55
 x12 | (_D,2 D,2 !>!_G,,2- G,,6) | x12 | x12 | x12 | x12 | x12 | x12 || x12 | %64
 (F,2 F,2 B,,2- B,,6) | [_C,,E,]12- | !fermata![_C,,E,]12 || x12 |[K:treble] (_D2 D2 G,2- G,6) | %69
[K:bass] x12 |[K:treble] (E2 E2 A,2- A,6) |[K:bass] x12 | x12 | %73
[K:treble]{/[_B,,F,]} (.E2 .E2 .A,2- A,6) |[K:bass] (.E,2 .E,2 .A,,2- A,,6) | x12 | %76
 x[K:treble] x11 |[K:bass] x12 | x[K:treble] x11 |[K:bass] x6[K:treble] x6 | x6[K:bass] x6 | x12 | %82
 x12 | x12 | x12 || (D,6 C,4 =B,,2) | x12 | ([B,,,B,,]6 [=A,,,=A,,]4 [^G,,,^G,,]2) | %88
 [=A,,,=A,,]8 x4 | x12 | x12 | x12 | x6[K:treble] x6 |[K:bass] x12 | x12 | x12 | A,,6- A,,2 z2 z2 | %97
[K:treble] (.F2 .F2 .B,2- B,6) | z B,2 B,2 B,2 B,- B,4 |[K:bass] z6 A,,6 | x8 [B,,,B,,]4 | %101
 (=A,,6 B,,6) | E,12 |[K:treble] x12 | x12 |] %105
V:9
 x12 | x12 | x12 | x12 | x12 | x12 | x12 | x12 |[K:bass] x4[K:treble] x8 | x12 | %10
 (._D2 .D2 ._G,2-) G,6 | x12 | x12 | x12 | x12 | x12 | x12 | x12 || F2 F2 B,2 B,6 | x12 | x12 | %21
 x12 | x12 | x12 | x12 | x12 |[K:bass] x12 | x12 |[K:treble] x12 | x12 | x12 | x12 | x12 | x12 | %34
 x12 | x12 | x12 | x12 | x12 | x12 || x12 | x12 | x12 | x12 | x12 | x12 | x10 [B,D]2 | x12 | x12 | %49
 x12 | x12 | x12 | x12 |[K:bass] x4[K:treble] x8 | x12 | (._D2 .D2 ._G,2-) G,6 | x12 | x12 | x12 | %59
 x12 | x12 | x12 | x12 || F2 F2 B,2 B,6 | x12 | x12 | x12 || x12 | x12 | x12 | x12 |[K:bass] x12 | %72
 x12 |[K:treble] x12 | x12 | x12 | x12 | x12 | x12 | x12 | x12 | x12 | x12 | x12 | x12 || x12 | %86
 x12 | x12 | x12 | x12 | x12 | x12 | x12 | x12 | x12 | x12 | x12 | x12 | x12 | x12 | x12 | x12 | %102
 x12 | x12 | x12 |] %105
V:10
 x12 |[K:bass] x12 | x12 | x12 | x12 | x12 | x12 | x12 |[K:treble] x12 |[K:bass] x12 | x12 | %11
 [C,,G,,]12 | x12 | x12 | x12 | x12 | x12 | x12 || x12 | [C,,B,,]12 | x12 | x12 | x12 | %23
[K:treble] x12 |[K:bass] x12 |[K:treble] x12 |[K:bass] x12 | x12 |[K:treble] x12 |[K:bass] x12 | %30
 x12 | x[K:treble] x11 |[K:bass] x12 | x[K:treble] x11 |[K:bass] x6[K:treble] x6 | x6[K:bass] x6 | %36
 x12 | x12 | x12 | x12 || x12 |[K:treble] x12 |[K:bass] x12 |[K:treble] x12 |[K:bass] x12 | x12 | %46
 x12 | x12 | x12 | x12 | x12 | x12 | x12 |[K:treble] x12 |[K:bass] x12 | x12 | [C,,G,,]12 | x12 | %58
 x12 | x12 | x12 | x12 | x12 || x12 | [C,,B,,]12 | x12 | x12 || x12 |[K:treble] x12 |[K:bass] x12 | %70
[K:treble] x12 |[K:bass] x12 | x12 |[K:treble] x12 |[K:bass] x12 | x12 | x[K:treble] x11 | %77
[K:bass] x12 | x[K:treble] x11 |[K:bass] x6[K:treble] x6 | x6[K:bass] x6 | x12 | x12 | x12 | x12 || %85
 x12 | x12 | x12 | x12 | x12 | x12 | x12 | x6[K:treble] x6 |[K:bass] x12 | x12 | x12 | x12 | %97
[K:treble] x12 | x12 |[K:bass] x12 | x4 [F,A,B,]4 x2 z2 | x12 | x12 |[K:treble] x12 | x12 |] %105
V:11
 x12 |[K:bass] x12 | x12 | x12 | x12 | x12 | x12 | x12 |[K:treble] x12 |[K:bass] x12 | x12 | x12 | %12
 x12 | x12 | x12 | x12 | x12 | x12 || x12 | x12 | x12 | x12 | x12 |[K:treble] x12 |[K:bass] x12 | %25
[K:treble] x12 |[K:bass] x12 | x12 |[K:treble] x12 |[K:bass] x12 | x12 | x[K:treble] x11 | %32
[K:bass] x12 | x[K:treble] x11 |[K:bass] x6[K:treble] x6 | x6[K:bass] x6 | x12 | x12 | x12 | x12 || %40
 x12 |[K:treble] x12 |[K:bass] x12 |[K:treble] x12 |[K:bass] x12 | x12 | x12 | x12 | x12 | x12 | %50
 x12 | x12 | x12 |[K:treble] x12 |[K:bass] x12 | x12 | x12 | x12 | x12 | x12 | x12 | x12 | x12 || %63
 x12 | x12 | x12 | x12 || x12 |[K:treble] x12 |[K:bass] x12 |[K:treble] x12 |[K:bass] x12 | x12 | %73
[K:treble] x12 |[K:bass] x12 | x12 | x[K:treble] x11 |[K:bass] x12 | x[K:treble] x11 | %79
[K:bass] x6[K:treble] x6 | x6[K:bass] x6 | x12 | x12 | x12 | x12 || x12 | x12 | x12 | x12 | x12 | %90
 x12 | x12 | x6[K:treble] x6 |[K:bass] x12 | x12 | x12 | x12 |[K:treble] x12 | x12 |[K:bass] x12 | %100
 x8 [D,A,B,]4 | x12 | x12 |[K:treble] x12 | x12 |] %105

